src/lib/assets/images/imac-side-dark.svg

<svg width="2012" height="1695" viewBox="0 0 2012 1695" fill="none" xmlns="http://www.w3.org/2000/svg"><path fill="#4B5563" d="m970.127 22.66 69.337-9.61 191.885 1346.397-69.337 9.61z"/><path transform="matrix(.1411 .99 -.99053 .13728 970.835 22.543)" stroke="#313A47" stroke-width="3" d="M0-1.5h1362"/><path fill="#4B5563" d="m1066.08 1049.17 49.527-6.864 5.643 39.6-49.526 6.864z"/><path transform="matrix(.99053 -.13728 .1411 .99 1066.08 1049.17)" fill="url(#a)" d="M0 0h50v40H0z"/><path d="M1014.64 1087.82c15.75 3.25 31.53-5.32 35.24-19.17 3.71-13.84-6.06-27.7-21.81-30.96-15.75-3.26-31.523 5.32-35.232 19.16l-.091.35c-.002.01-.007.01-.013.01-.006 0-.011 0-.013.01l-156.307 583.33c-3.957 14.76-18.953 25.2-36.216 25.2H744a8 8 0 0 0-8 8v5.25a8 8 0 0 0 8 8h570c4.42 0 8-3.58 8-8v-5.25c0-4.42-3.58-8-8-8H880.567c-13.797 0-23.986-11.31-20.824-23.11l147.577-550.76c.83-3.09 4.19-4.71 7.32-4.06Z" fill="#4B5563"/><circle opacity=".6" cx="1034.13" cy="1074.13" r="50" transform="rotate(13.25 1034.13 1074.13)" fill="#4B5563"/><circle cx="1034.13" cy="1074.13" r="48" transform="rotate(13.25 1034.13 1074.13)" fill="#4B5563"/><circle cx="1034.13" cy="1074.13" r="47.5" transform="rotate(13.25 1034.13 1074.13)" stroke="url(#b)" stroke-opacity=".4"/><path d="M738 1684h582c0 1.66-1.34 3-3 3H741c-1.657 0-3-1.34-3-3Z" fill="#313A47"/><defs><linearGradient id="a" x1="25" y1="0" x2="25" y2="40" gradientUnits="userSpaceOnUse"><stop stop-color="#313A47"/><stop offset=".255" stop-color="#313A47"/><stop offset=".526" stop-color="#4B5563"/><stop offset="1" stop-color="#4B5563"/></linearGradient><linearGradient id="b" x1="996.629" y1="1038.63" x2="1072.63" y2="1110.13" gradientUnits="userSpaceOnUse"><stop stop-color="#4B5563"/><stop offset="1" stop-color="#4B5563"/></linearGradient></defs></svg>

<svg width="2012" height="1695" viewBox="0 0 2012 1695" fill="none" xmlns="http://www.w3.org/2000/svg">
<rect width="70" height="1360" transform="matrix(0.990532 -0.13728 0.141092 0.989997 970.127 22.6605)" fill="#4B5563"/>
<line y1="-1.5" x2="1362" y2="-1.5" transform="matrix(0.141091 0.989997 -0.990532 0.13728 970.835 22.5433)" stroke="#313A47" stroke-width="3"/>
<rect width="50" height="40" transform="matrix(0.990532 -0.13728 0.141092 0.989997 1066.08 1049.17)" fill="#4B5563"/>
<rect width="50" height="40" transform="matrix(0.990532 -0.13728 0.141092 0.989997 1066.08 1049.17)" fill="url(#paint0_linear_5013_12666)"/>
<path d="M1014.64 1087.82C1030.39 1091.07 1046.17 1082.5 1049.88 1068.65C1053.59 1054.81 1043.82 1040.95 1028.07 1037.69C1012.32 1034.43 996.547 1043.01 992.838 1056.85C992.807 1056.97 992.776 1057.09 992.747 1057.2C992.745 1057.21 992.74 1057.21 992.734 1057.21V1057.21C992.728 1057.21 992.723 1057.21 992.721 1057.22L836.414 1640.55C832.457 1655.31 817.461 1665.75 800.198 1665.75H744C739.582 1665.75 736 1669.33 736 1673.75V1679C736 1683.42 739.582 1687 744 1687H1314C1318.42 1687 1322 1683.42 1322 1679V1673.75C1322 1669.33 1318.42 1665.75 1314 1665.75H880.567C866.77 1665.75 856.581 1654.44 859.743 1642.64L1007.32 1091.88C1008.15 1088.79 1011.51 1087.17 1014.64 1087.82V1087.82Z" fill="#4B5563"/>
<circle opacity="0.6" cx="1034.13" cy="1074.13" r="50" transform="rotate(13.25 1034.13 1074.13)" fill="#4B5563"/>
<circle cx="1034.13" cy="1074.13" r="48" transform="rotate(13.25 1034.13 1074.13)" fill="#4B5563"/>
<circle cx="1034.13" cy="1074.13" r="47.5" transform="rotate(13.25 1034.13 1074.13)" stroke="url(#paint1_linear_5013_12666)" stroke-opacity="0.4"/>
<path d="M738 1684H1320V1684C1320 1685.66 1318.66 1687 1317 1687H741C739.343 1687 738 1685.66 738 1684V1684Z" fill="#313A47"/>
<defs>
<linearGradient id="paint0_linear_5013_12666" x1="25" y1="0" x2="25" y2="40" gradientUnits="userSpaceOnUse">
<stop stop-color="#313A47"/>
<stop offset="0.255208" stop-color="#313A47"/>
<stop offset="0.526042" stop-color="#4B5563"/>
<stop offset="1" stop-color="#4B5563"/>
</linearGradient>
<linearGradient id="paint1_linear_5013_12666" x1="996.629" y1="1038.63" x2="1072.63" y2="1110.13" gradientUnits="userSpaceOnUse">
<stop stop-color="#4B5563"/>
<stop offset="1" stop-color="#4B5563"/>
</linearGradient>
</defs>
</svg>
